X:5942
T:Gan Ainm
R:Reel
S:
H:
N:
D:
Z:Adrian Scahill
M:4/4
L:1/8
K:G
A2eA dAcA|A2cA BAGB|A2eA dAcd|egg2 edcB|\
A2eA dAcA|A2cA BAGD|(3EFG Ac BAGB|A2AG A4:||\
eaag edcB|ABcd edcB|Aaag edcd|egg2 edcB|\
Aaag edcB|ABcA BAGD|(3EFG Ac BAGB|A2AG A4:||


